X: 35938
T: Saoil, A Mhor, Am Pos Thu?
R: slip jig
M: 9/8
K: Eminor
|:E2 E G2 d BAD|E^DE G2 d B2 F|E2 E G2 A BAd|edB B2 A G2 F:|
|:BcB B2 E G2 A|B2 B eBe gdc|B^AB dcB =AFd|D/E/FD AF/G/A B2 c:|

